X: 146131
T: WASHINGTON
Q: "Hornpipe."
R: Hornpipe.
%R: hornpipe
B: James Kerr "Merry Melodies" v.1 p.46 s.1 #31
Z: 2016 John Chambers <jc:trillian.mit.edu>
M: C
L: 1/8
K: Bb
|:\
vB>vcud>ue fBAB | g>Ba>B b>BA>B |\
G>BF>B E>BD>B |[1 G>ec>A B>AG>F :|[2 G>ec>A B2z2 ::\
fBAB gBAB | g>fg>a b>ag>f |
b>ag>f e>dc>B | c>ec>A B>AG>F |\
B>cd>e fBAB | gBaB bBAB |\
G>BF>B E>BD>B | GecA B2z2 :|

%%sep 1 1 500
%%sep 1 1 500

